usr/share/icons/biglinux-icons-material-dark/symbolic/actions/view-filter-rtl-symbolic.svg

<svg xmlns="http://www.w3.org/2000/svg" viewBox="0 0 16 16">
<defs id="defs3051">
<style id="current-color-scheme" type="text/css">
.ColorScheme-Contrast{color:#dedede}
</style>
</defs>
<path d="M9 2v12h1V2zM1 3v2h2V3zm4 0v2h2V3zm7 0v1h2V3zm0 3v1h2V6zM1 7v2h2V7zm4 0v2h2V7zm7 2v1h2V9zM1 11v2h2v-2zm4 0v2h2v-2zm7 1v1h2v-1z" class="ColorScheme-Contrast" style="fill:currentColor;fill-opacity:1;stroke:none"/>
</svg>

<svg xmlns="http://www.w3.org/2000/svg" viewBox="0 0 16 16">
  <defs id="defs3051">
    <style type="text/css" id="current-color-scheme">
      .ColorScheme-Text {
        color:#dedede;
      }
      </style>
  </defs>
 <path 
       style="fill:currentColor;fill-opacity:1;stroke:none"
	 class="ColorScheme-Text"
        d="M 9 2 L 9 14 L 10 14 L 10 2 L 9 2 z M 1 3 L 1 5 L 3 5 L 3 3 L 1 3 z M 5 3 L 5 5 L 7 5 L 7 3 L 5 3 z M 12 3 L 12 4 L 14 4 L 14 3 L 12 3 z M 12 6 L 12 7 L 14 7 L 14 6 L 12 6 z M 1 7 L 1 9 L 3 9 L 3 7 L 1 7 z M 5 7 L 5 9 L 7 9 L 7 7 L 5 7 z M 12 9 L 12 10 L 14 10 L 14 9 L 12 9 z M 1 11 L 1 13 L 3 13 L 3 11 L 1 11 z M 5 11 L 5 13 L 7 13 L 7 11 L 5 11 z M 12 12 L 12 13 L 14 13 L 14 12 L 12 12 z "
     />
</svg>
